!!!COM: Scarlatti, Domenico
!!!CDT: 1685///-1757///
!!!OTL: Sonata in C Major, K.166, L.51
!!!SCT: K. 166
!!!SCT: L. 051
!!!OMD: Allegro ma non tanto
**kern	**kern	**dynam
*staff2	*staff1	*staff1/2
*Icemba	*Icemba	*Icemba
*>[A,A1,A,B,B1,B,B2]	*>[A,A1,A,B,B1,B,B2]	*>[A,A1,A,B,B1,B,B2]
*>norep[A,B,B2]	*>norep[A,B,B2]	*>norep[A,B,B2]
*>A	*>A	*>A
*clefF4	*clefG2	*clefG2
*k[]	*k[]	*k[]
*M2/2	*M2/2	*M2/2
*MM176	*MM176	*MM176
=1-	=1-	=1-
4C\ 4c\	4r	p
4r	(4gg\	.
2r	4ee\	.
.	4ff\	.
=2	=2	=2
4r	2.gg\	.
*clefG2	*	*
(4c/	.	.
4d/	.	.
4e/	8ff\L	.
.	8ee\J	.
=3	=3	=3
4f/	4.dd\	.
4g/	.	.
.	16cc\LL	.
.	16b\JJ	.
4a/	4.cc\	.
4e/	.	.
.	16b\LL	.
.	16cc\JJ	.
=4	=4	=4
4f/	4.dd\	.
4g/	.	.
.	16cc\LL	.
.	16b\JJ	.
4a/	4.cc\	.
4e/	.	.
.	16dd\LL	.
.	16ee\JJ	.
=5	=5	=5
4f/	4.dd\	.
4g/	.	.
.	16cc\LL	.
.	16dd\JJ	.
4c/)	4.ee\	.
(4c/	.	.
.	16dd\LL	.
.	16ee\JJ	.
=6	=6	=6
4d/)	4.ff\	.
(4d/	.	.
.	16ee\LL	.
.	16ff\JJ	.
4e/)	4.gg\	.
(4e/	.	.
.	16ff\LL	.
.	16gg\JJ	.
=7	=7	=7
4f/)	12aa\L	mf
.	12gg\	.
.	12ff\J	.
(4f/	12ee\L	.
.	12dd\	.
.	12cc\J	.
4g/	4b\	.
4a/	8.cc\L	.
.	32b\LL	.
.	32cc\JJJ)	.
=8	=8	=8
4g/)	2.dd\	>
*clefF4	*	*
(4G\	.	)
4A\	.	]
4B\)	4gg\	p
=9	=9	=9
4r	(8gg\L	.
.	8ee\J)	.
(4c'\	(2ee\	.
4c'\	.	.
4c'\)	4gg'\)	.
=10	=10	=10
4r	(12gg\L	.
.	12ff#\	.
.	12ee\J	.
(4B'\	2dd\	.
4B'\	.	.
4B'\)	4dd'\)	.
=11	=11	=11
4r	(4ddd'\	mf
(4B-'\	4bb-'\	>
4B-'\	4gg'\	]
4B-'\)	4ee'\)	p
=12	=12	=12
4r	(4cc#'\	.
(4A'\	4b-'\	.
4A'\)	4g'/)	.
4c#\	4gg\	mf
=13	=13	=13
(4d\	(8ff\L	.
.	8ee\J	.
4f\	2dd\)	.
4g\)	.	.
4c#\	4gg\	p
=14	=14	=14
(4d\	(8ff\L	.
.	8ee\J	.
4f\	2dd\)	.
4g\)	.	.
4c#\	4gg\	.
=15	=15	=15
2d\	(4ff\	.
.	4aa\)	.
2r	(4ff'\	.
.	4dd'\	.
=16	=16	=16
4r	4b'/	.
(4G\	4g'/	.
4A\	4f'/	.
4B\	4ff\)	mf
=17	=17	=17
4c\	(8ee\L	.
.	8dd\J	.
4e\	2cc\)	.
4f\)	.	.
4B\	4ff\	p
=18	=18	=18
(4c\	(8ee\L	.
.	8dd\J	.
4e\	2cc'\)	.
4f\)	.	.
4B\	4ff\	.
=19	=19	=19
4r	(4ee\	.
(4c\	4gg\)	.
4e\	(4.gg\	.
4c\)	.	.
.	16ff#\LL	.
.	16ee\JJ	.
=20	=20	=20
4r	4dd\)	.
(4B\	(4bb\	mf
4c\)	4aa\)	.
4d\	4cc\	p
=21	=21	=21
4r	(4b\	.
(4c\	4gg\)	.
4e\	(4.gg\	.
4c\)	.	.
.	16ff#\LL	.
.	16ee\JJ	.
=22	=22	=22
4r	(4dd\)	.
(4B\	4bb\	mf
4c\)	4aa\)	.
4d\	4cc\	p
=23	=23	=23
4G'\ (4d'\	(8b\L	.
.	8cc\	.
4G'\ 4d'\)	8cc\	<
.	8dd\J	(
4G'\ (4c'\	8ee\L	[
.	8cc\	>
4G'\ 4c'\)	8a\	)
.	8f#\J	)
=24	=24	=24
4G'\ (4d'\	(8b\L)	)
.	8cc\	]
4G'\ 4d'\)	8cc\	<
.	8dd\J	[
4G'\ (4c'\	8ee\L	>
.	8cc\	)
4G'\ 4c'\)	8a\	)
.	8f#\J)	]
=25	=25	=25
4G'\ (4d'\	(8b\L	<
.	8cc\	(
4G'\ 4d'\)	8cc\	(
.	8dd\J	(
4G'\ (4c'\	8dd\L	(
.	8ee\	(
4G'\ 4c'\)	8ee\	(
.	8ff#\J	(
=26	=26	=26
4G'\ (4B'\	8gg\L	(
.	8dd\	(
4G'\ 4B'\)	8dd\	(
.	8b\J	(
(4c\	8ee\L	(
.	8cc\	(
4A\	8cc\	(
.	8a\J	(
=27	=27	=27
4B\)	8dd\L	(
.	8b\	(
(4B\	8b\	(
.	8g\J	(
4c\	(4.a/)	(
4d\)	.	(
.	16g/LL	(
.	16a/JJ	(
=28	=28	=28
4G'\ (4d'\	8b\L	(
.	8cc\	[
4G'\ 4d'\)	8cc\	<
.	8dd\J	[
4G'\ (4c'\	8ee\L	>
.	8cc\	)
4G'\ 4c'\)	8a\	)
.	8f#\J)	)
=29	=29	=29
4G'\ (4d'\	(8b\L	]
.	8cc\	<
4G'\ 4d'\)	8cc\	(
.	8dd\J	(
4G'\ (4c'\	8ee\L	[
.	8cc\	>
4G'\ 4c'\)	8a\	)
.	8f#\J)	]
=30	=30	=30
4G'\ (4d'\	(8b\L	<
.	8cc\	(
4G'\ 4d'\)	8cc\	(
.	8dd\J	(
4G'\ (4c'\	8dd\L	(
.	8ee\	(
4G'\ 4c'\)	8ee\	(
.	8ff#\J	(
=31	=31	=31
4G'\ (4B'\	8gg\L	(
.	8dd\	(
4G'\ 4B'\)	8dd\	(
.	8b\J	(
(4c\	8ee\L	(
.	8cc\	(
4A\	8cc\	(
.	8a\J	(
=32	=32	=32
4B\)	8dd\L	(
.	8b\	(
(4B\	8b\	(
.	8g\J)	(
4c\	(4.a/	(
4d\)	.	(
.	16g/LL	(
.	16a/JJ	(
=33	=33	=33
4G'\ (4d'\	8g\L)	(
.	(8gg\	(
4G'\ 4d'\)	8ee\	(
.	8cc\J	(
4F#'\ (4d'\	8cc\L	(
.	8b\	(
4F#'\ 4d'\)	8b\	(
.	8a\J	[
=34	=34	=34
4G'\ (4d'\	8b\L)	<
.	(8bb\	(
4G'\ 4d'\)	8gg\	(
.	[8ee^\J	(
4F#'\ (4d'\	8ee\L]	(
.	8dd\	(
4F#'\ 4d'\)	8dd\	(
.	8cc\J	(
=35	=35	=35
4G'\ (4d'\	8b\L)	(
.	(8ddd\	(
4G'\ 4d'\)	8bb\	(
.	[8gg^\J	(
4A'\ (4c'\	8gg\L]	(
.	8ff#\	(
4A'\ 4c'\)	8ff#\	(
.	8ee\J	[
=36	=36	=36
(4B\	8dd\L	mf
.	8bb\	.
4c\	8ee\	.
.	8ccc\J	.
4d'\)	4bb'\)	.
4D'\	4aa'\	.
=37	=37	=37
4G'\ (4d'\	8r	.
.	(8gg\L	p
4G'\ 4d'\)	8ee\	.
.	[8cc\J	.
4F#'\ (4d'\	8cc\L]	.
.	8b\	.
4F#'\ 4d'\)	8b\	.
.	8a\J	.
=38	=38	=38
4G'\ (4d'\	8b\L)	<
.	(8bb\	(
4G'\ 4d'\)	8gg\	(
.	[8ee\J	(
4F#'\ (4d'\	8ee\L]	(
.	8dd\	(
4F#'\ 4d'\)	8dd\	(
.	8cc\J	(
=39	=39	=39
4G'\ (4d'\	8b\L)	(
.	(8ddd\	(
4G'\ 4d'\)	8bb\	(
.	[8gg\J	(
4A'\ (4c'\	8gg\L]	(
.	8ff#\	(
4A'\ 4c'\)	8ff#\	(
.	8ee\J	[
=40	=40	=40
(4B\	8dd\L	f
.	8bb\	.
4c\	8ee\	.
.	8ccc\J	.
4d'\)	4bb'\)	.
4D'\	4aa'\	.
=41	=41	=41
4r	(8d/L	mf
.	8dd/	.
(4c\	8e/	.
.	8cc/J	.
4d'\)	4b'/)	.
4D'\	4a'/	.
=42	=42	=42
(4BB/	(8dd\L	f
.	8gg\	.
4C/	8g\	.
.	8ee'\J	.
4D'/)	4b'/)	.
4DD'/	4a'/	.
=43	=43	=43
*>A1	*>A1	*>A1
2GG^/	(8g/L	>
.	8a/	)
.	8g/	)
.	8fn/J	)
2r	8e/L	)
.	8d/	)
.	8c/	)
.	8B/J)	]
=44:|!|:	=44:|!|:	=44:|!|:
*>B	*>B	*>B
2GG^/	4g/	f
.	(4dd\	p
2r	4b\	.
.	4cc\	.
=45	=45	=45
4r	2.dd\	.
(4g\	.	.
4f\	.	.
4e\	4ee\	.
=46	=46	=46
4d\)	4.ff\	.
(4d\	.	.
.	16ee\LL	.
.	16dd\JJ	.
4c\)	4.ee\	.
(4c\	.	.
.	16dd\LL	.
.	16cc\JJ	.
=47	=47	=47
4B\)	4.dd\	.
(4B\	.	.
.	16cc\LL	.
.	16b\JJ	.
4A\)	4.cc\	.
(4A\	.	.
.	16dd\LL	.
.	16ee\JJ	.
=48	=48	=48
4D\)	12ff\L	.
.	12ee\	.
.	12dd\J	.
(4D\	12cc\L	.
.	12b\	.
.	12a\J	.
4E\	4g#/	.
4F\)	8.a/L	.
.	32g#/LL	.
.	32a/JJJ)	.
=49	=49	=49
4r	2.b\	>
(4E\	.	)
4F#\	.	]
4G#\)	4ee\	p
=50	=50	=50
4r	(8ee\L	.
.	8cc\J)	.
4A'\ (4c'\	(2cc\	.
4A'\ 4c'\	.	.
4A'\ 4c'\)	4ee'\)	.
=51	=51	=51
4r	(8ee\L	.
.	8b\J)	.
4G#'\ (4B'\	(2b\	.
4G#'\ 4B'\	.	.
4G#'\ 4B'\)	4ee'\)	.
=52	=52	=52
4r	(12ee\L	.
.	12dd\	.
.	12cc\J	.
(4A\	12dd\L	.
.	12cc\	.
.	12b\J	.
4B\	12cc\L	.
.	12b\	.
.	12a\J	.
4c\	12b\L	.
.	12a\	.
.	12g\J	.
=53	=53	=53
4d\)	4g/	.
(4D\	2f/	.
4E\	.	.
4F\)	4dd\)	.
=54	=54	=54
4r	(12dd\L	.
.	12cc\	.
.	12b\J	.
(4G\	12cc\L	.
.	12b\	.
.	12a\J	.
4A\	12b/L	.
.	12a/	.
.	12g/J	.
4B\	12a/L	.
.	12g/	.
.	12f/J	.
=55	=55	=55
4c\)	4f/	.
(4C'/	2e/	.
4C'/	.	.
4C'/)	4e'/)	.
=56	=56	=56
4r	(4gg'\	.
(4C/	4ee'\	>
4D/	4b-'\	]
4E/)	4g'/)	p
=57	=57	=57
4r	(4g#^/	.
(4F'\	2a/	.
4F'\	.	.
4E'\)	4a'/)	.
=58	=58	=58
4r	(4aa'\	.
(4D\	4ff#'\	.
4E\	4cc'\	.
4F#\)	4a'\)	.
=59	=59	=59
4r	(4a^/	.
(4G\	2b/)	.
4A\	.	.
4B\)	4gg\	.
=60	=60	=60
4r	(8gg\L	.
.	8ee\J)	.
4c'\ (4e'\	2ee\	.
4c'\ 4e'\	.	.
4c'\ 4e'\)	4gg'\	.
=61	=61	=61
4r	(12gg\L	.
.	12ff\	.
.	12ee\J	.
4B'\ (4d'\	2dd\	.
4B'\ 4d'\	.	.
4B'\ 4d'\)	4dd\)	.
*clefG2	*	*
=62	=62	=62
(4c'/ 4g'/	(8ee\L	.
.	8ff\	<
4c'/) 4g'/	8ff\	(
.	8gg\J	(
(4c'/ 4f'/	8aa\L	[
.	8ff\	>
4c'/) 4f'/	8dd\	)
.	8b\J)	)
=63	=63	=63
(4c'/ 4g'/	(8ee\L	)
.	8ff\	]
4c'/) 4g'/	8ff\	<
.	8gg\J	[
(4c'/ 4f'/	8aa\L	>
.	8ff\	)
4c'/) 4f'/	8dd\	)
.	8b\J)	]
=64	=64	=64
(4c'/ 4g'/	(8ee\L	<
.	8ff\	(
4c'/) 4g'/	8ff\	(
.	8gg\J	(
(4c'/ 4f'/	8gg\L	(
.	8aa\	(
4c'/) 4f'/	8aa\	(
.	8bb\J	(
=65	=65	=65
(4c'/ 4e'/	8ccc\L	[
.	8gg\	>
4c'/) 4e'/	8gg\	)
.	8ee\J	)
*clefF4	*	*
4F\	8aa\L	)
.	8ff\	)
(4F\	8ff\	)
.	8dd\J	)
=66	=66	=66
4E\)	8gg\L	)
.	8ee\	)
(4E\	8ee\	)
.	8cc\J)	)
4F\	(4.dd\	)
4G\)	.	)
.	16cc\LL	)
.	16b\JJ	)
=67	=67	=67
4C'\ (4G'\	(8ee\L)	)
.	8ff\	]
4C'\ 4G'\	8ff\	<
.	8gg\J	[
4C'\ 4G'\	8gg\L	>
.	8ee\	)
4C'\ 4G'\)	8b-\	)
.	8g\J)	)
=68	=68	=68
4C\ (4B-\	(8ee\L	)
.	8ff\	]
4C'\ 4B-'\	8ff\	<
.	8gg\J	[
4C'\ 4B-'\	8gg\L	>
.	8ee\	)
4C\ 4B-\)	8b-\	)
.	8g\J)	]
=69	=69	=69
4C'\ (4A'\	(8ff\L	<
.	8gg\	(
4C'\ 4A'\	8gg\	(
.	8aa\J	(
4C'\ 4A'\	8aa\L	[
.	8ff\	>
4C'\ 4A'\)	8dd\	)
.	(8bn\J)	)
=70	=70	=70
4C\ (4Bn\	8ff\L	]
.	8gg\	<
4C'\ 4B'\	8gg\	(
.	8aa\J	[
4C'\ 4B'\	8aa\L	>
.	8ff\	)
4C'\ 4B'\)	8dd\	)
.	8b\J)	]
=71	=71	=71
4C\ 4c\	(8ccc\L	f
.	8gg\	.
(4E\	8gg\	.
.	8ee\J	.
4F\	8aa\L	.
.	8ff\	.
4D\	8ff\	.
.	8dd\J	.
=72	=72	=72
4E\)	8gg\L	.
.	8ee\	.
(4A\	8ee\	.
.	8cc\J)	.
4F\	(4.dd\	.
4G\	.	.
.	16cc\LL	.
.	16b\JJ	.
=73	=73	=73
4C\ 4c\)	8cc\L)	.
.	(8ccc\	p
4C\ 4c\	8aa\	.
.	[8ff^\J	.
4C\ [4Bn\	8ff\L]	.
.	8ee\	.
4C'\ 4B'\]	8ee\	.
.	8dd\J	.
=74	=74	=74
4C'\ (4c'\	8ee\L)	<
.	(8ccc\	(
4C'\ 4c'\)	8ff\	(
.	[8dd^\J	(
4D'\ (4d'\	8dd\L]	(
.	8cc\	(
4D'\ 4d'\)	8cc\	(
.	8b\J	[
=75	=75	=75
4E'\ 4c'\	8cc\L	mf
.	8gg\	.
(4F\	8cc\	.
.	8aa\J	.
4G'\)	4ee'\)	.
4GG'/	4dd'\	.
=76	=76	=76
4C'/	8cc'\L	.
.	(8ccc\	p
4C\ 4c\	8aa\	.
.	[8ff^\J	.
4C'\ (4Bn'\	8ff\L]	.
.	8ee\	.
4C'\ 4B'\)	8ee\	.
.	8dd\J	.
=77	=77	=77
4C'\ (4c'\	8ee\L)	.
.	(8ccc\	.
4C'\ 4c'\)	8ff\	.
.	[8dd^\J	.
4D'\ (4d'\	8dd\L]	.
.	8cc\	.
4D'\ 4d'\)	8cc\	.
.	8b\J	.
=78	=78	=78
4E\ 4c\	8cc\L	f
.	8gg\	.
(4F\	8cc\	.
.	8aa\J	.
4G'\)	4ee'\	.
4GG'/	4dd'\)	.
=79	=79	=79
(4E\	(8cc\L	mf
.	8gg\	.
4F\	8cc\	.
.	8aa\J	.
4G'\)	4ee'\)	.
4GG'/	4dd'\	.
=80	=80	=80
(4E\	(8cc\L	f
.	8gg\	.
4F\	8cc\	.
.	8ccc\J	.
4G'\)	4cc'\ 4ee'\)	.
4GG'/	4b'\ 4dd'\	.
=81	=81	=81
*>B1	*>B1	*>B1
2CC^/	(8cc\L	>
.	8ee\	)
.	8dd\	)
.	8cc\J	)
2r	8b\L	)
.	8a\	)
.	8g\	)
.	8f#\J)	]
=82:|!	=82:|!	=82:|!
*>B2	*>B2	*>B2
2CC^/	2cc^\	f
2r	2r	.
==	==	==
*-	*-	*-
!!!ENC: Craig Stuart Sapp
!!!END: 2005/06/19/
